build/security/PasswordOutline.svg

<svg xmlns="http://www.w3.org/2000/svg" fill="none" viewBox="0 0 24 24" focusable="false"><path d="M0 0H24V24H0z"/><path fill="#74767B" fill-rule="evenodd" d="M4.89172 2.00012L5.691 2.00012C6.04998 2.00012 6.341 2.29114 6.341 2.65012C6.341 3.00911 6.04998 3.30012 5.691 3.30012L4.89172 3.30012C3.95284 3.30012 3.19172 4.06124 3.19172 5.00012L3.19172 5.69109C3.19172 6.05008 2.90071 6.34109 2.54172 6.34109C2.18274 6.34109 1.89172 6.05008 1.89172 5.69109L1.89172 5.00012C1.89172 3.34327 3.23487 2.00012 4.89172 2.00012ZM21.8917 5.6911C21.8917 6.05008 21.6007 6.34109 21.2417 6.34109C20.8827 6.34109 20.5917 6.05008 20.5917 5.6911L20.5917 5.00012C20.5917 4.06124 19.8306 3.30012 18.8917 3.30012L18.3089 3.30012C17.9499 3.30012 17.6589 3.00911 17.6589 2.65012C17.6589 2.29114 17.9499 2.00012 18.3089 2.00012L18.8917 2.00012C20.5486 2.00012 21.8917 3.34327 21.8917 5.00012L21.8917 5.6911ZM7.74997 12C7.74997 12.8284 7.0784 13.5 6.24997 13.5C5.42154 13.5 4.74997 12.8284 4.74997 12C4.74997 11.1716 5.42154 10.5 6.24997 10.5C7.0784 10.5 7.74997 11.1716 7.74997 12ZM13.5 12C13.5 12.8284 12.8284 13.5 12 13.5C11.1715 13.5 10.5 12.8284 10.5 12C10.5 11.1716 11.1715 10.5 12 10.5C12.8284 10.5 13.5 11.1716 13.5 12ZM19.25 12C19.25 12.8284 18.5784 13.5 17.75 13.5C16.9215 13.5 16.25 12.8284 16.25 12C16.25 11.1716 16.9215 10.5 17.75 10.5C18.5784 10.5 19.25 11.1716 19.25 12ZM1.89172 18.309C1.89172 17.95 2.18274 17.659 2.54172 17.659C2.90071 17.659 3.19172 17.95 3.19172 18.309L3.19172 19.0001C3.19172 19.939 3.95284 20.7001 4.89172 20.7001L5.691 20.7001C6.04998 20.7001 6.341 20.9911 6.341 21.3501C6.341 21.7091 6.04998 22.0001 5.691 22.0001L4.89172 22.0001C3.23487 22.0001 1.89172 20.657 1.89172 19.0001L1.89172 18.309ZM20.5917 18.309C20.5917 17.95 20.8827 17.659 21.2417 17.659C21.6007 17.659 21.8917 17.95 21.8917 18.309L21.8917 19.0001C21.8917 20.657 20.5486 22.0001 18.8917 22.0001L18.3089 22.0001C17.9499 22.0001 17.6589 21.7091 17.6589 21.3501C17.6589 20.9911 17.9499 20.7001 18.3089 20.7001L18.8917 20.7001C19.8306 20.7001 20.5917 19.939 20.5917 19.0001L20.5917 18.309Z"/></svg>

<svg xmlns="http://www.w3.org/2000/svg" fill="none" viewBox="0 0 24 24" focusable="false"><path fill="#74767B" fill-rule="evenodd" d="M4.89 2h.8c.35 0 .65.29.65.65 0 .35-.3.65-.65.65h-.8c-.94 0-1.7.76-1.7 1.7v.69c0 .36-.29.65-.65.65s-.65-.29-.65-.65V5c0-1.66 1.34-3 3-3m17 3.69c0 .36-.29.65-.65.65s-.65-.29-.65-.65V5c0-.94-.76-1.7-1.7-1.7h-.59c-.35 0-.65-.3-.65-.65 0-.36.3-.65.65-.65h.59c1.65 0 3 1.34 3 3zM7.75 12c0 .82-.68 1.5-1.5 1.5-.83 0-1.5-.68-1.5-1.5 0-.83.67-1.5 1.5-1.5.82 0 1.5.67 1.5 1.5m5.75 0c0 .82-.68 1.5-1.5 1.5-.83 0-1.5-.68-1.5-1.5 0-.83.67-1.5 1.5-1.5.82 0 1.5.67 1.5 1.5m5.75 0c0 .82-.68 1.5-1.5 1.5-.83 0-1.5-.68-1.5-1.5 0-.83.67-1.5 1.5-1.5.82 0 1.5.67 1.5 1.5M1.89 18.3c0-.35.29-.65.65-.65s.65.3.65.65v.7c0 .93.76 1.7 1.7 1.7h.8c.35 0 .65.29.65.65 0 .35-.3.65-.65.65h-.8c-1.66 0-3-1.35-3-3zm18.7 0c0-.35.29-.65.65-.65s.65.3.65.65v.7c0 1.65-1.35 3-3 3h-.59c-.35 0-.65-.3-.65-.65 0-.36.3-.65.65-.65h.59c.94 0 1.7-.77 1.7-1.7z"/></svg>
